!!!!SEGMENT: pl-kk--kk-i-11--001-003_anonim--missa-o-admirabile-comercium-patrem.krn
!!!cenid: 16xx:1234
!!!COM: Anonim
!!!COM-rismid: pe30004985
!!!CDT:
!!!CNT:
!!!OPR: Missa o Admirabile Comercium
!!!OTL: Patrem
!!!OMV: 003
!!!PDT:
!!!AGN: Sacred; Mass
!!!SMS-siglum: PL-Kk
!!!SMS-shelfmark: Kk.I.11
!!!SMS-shelfwork: 001-003 M
!!!SMS-variant:
!!!SMS-altvar:
!!!NIFC-rismid: 1001154125
!!!URL-scan: http://repozytorium.nifc.pl/skany/pl-kk-nut--i-11
!!!ONB-nifc: UWAGA: części Mszy: 1. Kyrie, 2. Et in terra, 3. Patrem, 4. Sanctus, 5. Benedictus, 6. Agnus Dei. S (skan 0004-0008), T (0013-0016).
!!!key:
**kern	**text	**kern	**text
*part2	*part2	*part1	*part1
*staff2	*staff2	*staff1	*staff1
*Itenor	*	*Ivox	*
*I"[Tenore]	*	*I"[Canto]	*
*I'T	*	*I'S	*
*clefC4	*	*clefG2	*
*k[]	*	*k[]	*
*G:	*	*G:	*
*M2/1	*	*M2/1	*
*met(C|)	*	*met(C|)	*
=1-	=1-	=1-	=1-
*all\right	*	*all\right	*
0G/	Pa-	00dd\	Pa-
=2-	=2-	=2-	=2-
4D/	.	.	.
4E/	.	.	.
4F/	.	.	.
!LO:TX:t=P:problem:kreska pseudotaktowa	!	!	!
4E/	.	.	.
1D/	.	.	.
=3-	=3-	=3-	=3-
!	!	!LO:TX:t=P:problem:kreska pseudotaktowa	!
1G/	.	1dd\	-trem
!LO:TX:t=P:problem:kreska pseudotaktowa	!	!	!
1G/	-trem	1dd\	om-
=4-	=4-	=4-	=4-
1.c\	om-	1.ee\	-ni-
!LO:TX:t=P:problem:kreska pseudotaktowa	!	!LO:TX:t=P:problem:kreska pseudotaktowa	!
*	*	*2\right	*
2G/	-ni-	2dd\	-po-
=5-	=5-	=5-	=5-
*2\right	*	*	*
2B\	-po-	0ee\	-te(n)-
1A\	-ten-	.	.
4B\	.	.	.
*4\left	*	*	*
4c\	.	.	.
*4\right	*	*	*
=6-	=6-	=6-	=6-
!LO:TX:t=P:problem:kreska pseudotaktowa	!	!LO:TX:t=P:problem:kreska pseudotaktowa	!
0d\	te(m)	1dd\	-tem
.	.	2r	.
.	.	2dd\	fa-
=7-	=7-	=7-	=7-
1B\	fa-	1dd\	-cto-
!	!	!LO:TX:t=P:problem:kreska pseudotaktowa	!
4G/	-cto-	1dd\	-re
4A/	.	.	.
!LO:TX:t=P:problem:kreska pseudotaktowa	!	!	!
2B\	-rem	.	.
=8-	=8-	=8-	=8-
2c\	Coe-	1ee\	cae-
1G/	.	.	.
!	!	!LO:TX:t=P:problem:kreska pseudotaktowa	!
.	.	1dd\	-li
!LO:TX:t=P:problem:kreska pseudotaktowa	!	!	!
2B\	-li	.	.
=9-	=9-	=9-	=9-
1c\	et	1cc\	et
!	!	!LO:TX:t=P:problem:kreska pseudotaktowa	!
1A\	ter-	1cc\	ter-
=10-	=10-	=10-	=10-
!LO:TX:t=P:problem:kreska pseudotaktowa	!	!LO:SIC:v:t=custos dd	!
0G/	-rae	2b,</	-rae
!	!	!LO:LB:g=original	!
.	.	1dd\	Vi-
!	!	!LO:TX:t=P:problem:kreska pseudotaktowa	!
.	.	2dd\	-ſi-
=11-	=11-	=11-	=11-
00r	.	2ee\	-bi-
!	!	!LO:TX:t=P:problem:kreska pseudotaktowa	!
.	.	2dd\	-li-
.	.	2ee\	-um
.	.	1cc\	om-
=12-	=12-	=12-	=12-
.	.	.	.
!	!	!LO:TX:t=P:problem:kreska pseudotaktowa	!
.	.	2b/	-ni-
!	!	!LO:TX:t=P:problem:kreska pseudotaktowa	!
.	.	1a/	-um
=13-	=13-	=13-	=13-
1.d\	Et	0r	.
2d\	in-	.	.
=14-	=14-	=14-	=14-
2B\	-vi-	1.ee\	Et
!LO:TX:t=P:problem:kreska pseudotaktowa	!	!	!
2G/	-ſi-	.	.
!LO:LB:g=original	!	!	!
2.c\	-bi-	.	.
!	!	!LO:TX:t=P:problem:kreska pseudotaktowa	!
.	.	2cc\	in-
!LO:TX:t=P:problem:kreska pseudotaktowa	!	!	!
4G/	.	.	.
=15-	=15-	=15-	=15-
1.c\	.	2dd\	-Vi-
!	!	!LO:TX:t=P:problem:kreska pseudotaktowa	!
.	.	2ee\	-ſi-
.	.	2.ff\	-bi-
!LO:TX:t=P:problem:kreska pseudotaktowa	!	!	!
2B\	-li-	.	.
!	!	!LO:TX:t=P:problem:kreska pseudotaktowa	!
.	.	4ff\	-li-
=16-	=16-	=16-	=16-
2c\	-um	2ee,<\	-um
!LO:TX:t=P:problem:kreska pseudotaktowa	!	!	!
2r	.	1ee\	Et
00r	.	.	.
!	!	!LO:TX:t=P:problem:kreska pseudotaktowa	!
!	!	!LO:SIC:v:t=custos dd	!
.	.	2ee\	in
!	!	!LO:LB:g=original	!
=17-	=17-	=17-	=17-
.	.	2dd\	V-
!	!	!LO:TX:t=P:problem:kreska pseudotaktowa	!
.	.	2ee\	-nu(m)
.	.	2cc\	Do-
.	.	2dd\	-mi-
=18-	=18-	=18-	=18-
!	!	!LO:TX:t=P:problem:kreska pseudotaktowa	!
.	.	1ee\	-nu(m)
1.c\	Je-	0ee\	Je-
=19-	=19-	=19-	=19-
.	.	.	.
!LO:TX:t=P:problem:kreska pseudotaktowa	!	!	!
2G/	-ſum	.	.
1B\	.	2dd\	-ſum
.	.	4cc\	.
!	!	!LO:TX:t=P:problem:kreska pseudotaktowa	!
.	.	4b\	.
=20-	=20-	=20-	=20-
2A/	Chri-	1cc\	Chr(i-
4e\	.	.	.
!LO:TX:t=P:problem:kreska pseudotaktowa	!	!	!
4d\	.	.	.
4c\	.	1a/	.
4B\	.	.	.
!LO:TX:t=P:problem:kreska pseudotaktowa	!	!	!
2A/	.	.	.
=21-	=21-	=21-	=21-
!	!	!LO:TX:t=P:problem:kreska pseudotaktowa	!
2B\	stum	1g/	-st)um
!LO:TX:t=P:problem:kreska pseudotaktowa	!	!	!
2G/	fi-	.	.
2F/	-li-	2r	.
1d\	-u(m)	2g/	fi-
=22-	=22-	=22-	=22-
.	.	2a/	-li-
!LO:TX:t=P:problem:kreska pseudotaktowa	!	!LO:TX:t=P:problem:kreska pseudotaktowa	!
2c\	De-	2cc\	-um
!LO:TX:t=P:problem:kreska pseudotaktowa	!	!	!
1A\	-i	1dd\	De-
=23-	=23-	=23-	=23-
!	!	!LO:TX:t=P:problem:kreska pseudotaktowa	!
00r	.	1b\	-i
.	.	1cc\	V-
!	!	!LO:LB:g=original	!
=24-	=24-	=24-	=24-
.	.	2dd\	-ni-
!	!	!LO:TX:t=P:problem:kreska pseudotaktowa	!
.	.	[y2ee\	-ge-
!	!	!LO:N:xstem:cue	!
.	.	4ee]	.
.	.	4dd\	.
.	.	1cc\	.
=25-	=25-	=25-	=25-
0r	.	.	.
.	.	4b/	.
!	!	!LO:TX:t=P:problem:kreska pseudotaktowa	!
.	.	4a/	.
.	.	2b/	.
.	.	2b/	-ni-
=26-	=26-	=26-	=26-
!	!	!LO:TX:t=P:problem:kreska pseudotaktowa	!
2r	.	0cc\	-tum
1c\	Et	.	.
!LO:TX:t=P:problem:kreska pseudotaktowa	!	!	!
2c\	ex	.	.
=27-	=27-	=27-	=27-
2c\	Pa-	0r	.
!LO:TX:t=P:problem:kreska pseudotaktowa	!	!	!
2G/	-tre	.	.
1A\	Na-	.	.
=28-	=28-	=28-	=28-
1B\	-tu(m)	2r	.
.	.	1dd\	an-
00r	.	.	.
!	!	!LO:TX:t=P:problem:kreska pseudotaktowa	!
.	.	2ee\	-te
=29-	=29-	=29-	=29-
.	.	2dd\	om-
!	!	!LO:TX:t=P:problem:kreska pseudotaktowa	!
.	.	2dd\	-ni-
.	.	4gg\	-a
.	.	4ff\	.
.	.	4ee\	.
!	!	!LO:TX:t=P:problem:kreska pseudotaktowa	!
.	.	4dd\	.
=30-	=30-	=30-	=30-
.	.	4ee\	.
!	!	!LO:SIC:v:t=custos cc	!
.	.	4dd\	.
!	!	!LO:LB:g=original	!
!	!	!LO:TX:t=P:problem:kreska pseudotaktowa	!
.	.	2cc\	.
!LO:TX:t=P:problem:kreska pseudotaktowa	!	!	!
1r	.	2.b/	Sae-
.	.	4b/	-cu-
!LO:PB:g=original	!	!	!
=31-	=31-	=31-	=31-
2r	.	2a/	-la
!LO:TX:t=P:problem:kreska pseudotaktowa	!	!LO:TX:t=P:problem:kreska pseudotaktowa	!
2A/	De-	2ff\	De-
2A/	-um	2ff\	-u(m)
!LO:TX:t=P:problem:kreska pseudotaktowa	!	!LO:TX:t=P:problem:kreska pseudotaktowa	!
2G/	de	2ee\	de
=32-	=32-	=32-	=32-
1G/	De-	1dd\	De-
!LO:TX:t=P:problem:kreska pseudotaktowa	!	!	!
1G/	-o	2cc\	-o
!	!	!LO:TX:t=P:problem:kreska pseudotaktowa	!
.	.	2cc\	lu-
=33-	=33-	=33-	=33-
0r	.	2cc\	-men
!	!	!LO:TX:t=P:problem:kreska pseudotaktowa	!
.	.	2b/	de
.	.	2.dd\	lu-
.	.	4dd\	-mi-
=34-	=34-	=34-	=34-
!	!	!LO:TX:t=P:problem:kreska pseudotaktowa	!
2r	.	1dd\	-ne
!LO:TX:t=P:problem:kreska pseudotaktowa	!	!	!
2d\	De-	.	.
2d\	-um	0r	.
!LO:TX:t=P:problem:kreska pseudotaktowa	!	!	!
2c\	.	.	.
=35-	=35-	=35-	=35-
1d\	Ve-	.	.
!LO:TX:t=P:problem:kreska pseudotaktowa	!	!	!
1c\	-rum	2r	.
!	!	!LO:TX:t=P:problem:kreska pseudotaktowa	!
.	.	2a/	de
=36-	=36-	=36-	=36-
1c\	de	2.cc\	De-
!	!	!LO:TX:t=P:problem:kreska pseudotaktowa	!
.	.	4dd\	.
!	!	!LO:LB:g=original	!
2A/	De-	2ee\	.
!LO:TX:t=P:problem:kreska pseudotaktowa	!	!	!
2A/	-o	1dd\	o
=37-	=37-	=37-	=37-
1A\	Ve-	.	.
!	!	!LO:SIC:v:s=2cc#	!
!	!	!LO:TX:t=P:problem:kreska pseudotaktowa	!
.	.	2cc\	Ve-
!	!	!LO:TX:t=P:problem:kreska pseudotaktowa	!
2A/	-ro	1dd\	-ro
!LO:TX:t=P:problem:kreska pseudotaktowa	!	!	!
2r	.	.	.
=38-	=38-	=38-	=38-
0r	.	0r	.
=39-	=39-	=39-	=39-
!LO:TX:t=P:problem:kreska pseudotaktowa	!	!LO:TX:t=P:problem:kreska pseudotaktowa	!
1r	.	1r	.
1.G/	Con-	2r	.
.	.	1dd\	Con-
=40-	=40-	=40-	=40-
.	.	.	.
!LO:TX:t=P:problem:kreska pseudotaktowa	!	!LO:TX:t=P:problem:kreska pseudotaktowa	!
2D/	-ſub-	2dd\	-ſub-
2G/	-ſtan-	2dd\	-sſtan-
!LO:TX:t=P:problem:kreska pseudotaktowa	!	!LO:TX:t=P:problem:kreska pseudotaktowa	!
2G/	-ti-	2cc\	-ti-
=41-	=41-	=41-	=41-
2F/	-a-	2dd\	-a-
!LO:TX:t=P:problem:kreska pseudotaktowa	!	!LO:TX:t=P:problem:kreska pseudotaktowa	!
2G/	-le(m)	2dd\	-lem
!LO:LB:g=original	!	!	!
2A\	Pa-	1ee\	P(a-
4B\	.	.	.
!LO:TX:t=P:problem:kreska pseudotaktowa	!	!	!
4c\	.	.	.
=42-	=42-	=42-	=42-
!	!	!LO:TX:t=P:problem:kreska pseudotaktowa	!
2d\	.	0dd\	-t)ri
2D/	.	.	.
2G,</	-tri,	.	.
4B\	per	.	.
!LO:TX:t=P:problem:kreska pseudotaktowa	!	!	!
4c\	.	.	.
=43-	=43-	=43-	=43-
1d\	.	2r	.
.	.	1dd\	per
2B\	quem	.	.
!LO:TX:t=P:problem:kreska pseudotaktowa	!	!LO:TX:t=P:problem:kreska pseudotaktowa	!
2G/	o(m-	2ee\	que(m)
=44-	=44-	=44-	=44-
2d\	-n)i-	2.dd\	om-
1G/	-a	.	.
!	!	!LO:TX:t=P:problem:kreska pseudotaktowa	!
!	!	!LO:SIC:v:t=custos dd	!
.	.	4dd\	-ni-
*	*	*lig	*
!	!	!LO:LB:g=original	!
.	.	1dd\	-a
1d\	fa-	.	.
=45-	=45-	=45-	=45-
!	!	!LO:TX:t=P:problem:kreska pseudotaktowa	!
.	.	1g/	.
2c\	-cta	.	.
!LO:TX:t=P:problem:kreska pseudotaktowa	!	!	!
*	*	*Xlig	*
1d\	s(unt)	2dd\	fa-
.	.	2dd\	-cta
=46-	=46-	=46-	=46-
!	!	!LO:TX:t=P:problem:kreska pseudotaktowa	!
2r	.	1b\	ſu(n)t
!LO:TX:t=P:problem:kreska pseudotaktowa	!	!	!
2B\	Qui	.	.
2c\	p(ro-	0r	.
2B\	-pte)r	.	.
=47-	=47-	=47-	=47-
!LO:TX:t=P:problem:kreska pseudotaktowa	!	!	!
1c\	nos	.	.
!	!	!LO:TX:t=P:problem:kreska pseudotaktowa	!
1c\	-h(omi)-	1r	.
=48-	=48-	=48-	=48-
!LO:TX:t=P:problem:kreska pseudotaktowa	!	!	!
1B\	-nes	2r	.
!	!	!LO:TX:t=P:problem:kreska pseudotaktowa	!
.	.	2dd\	et
00r	.	2ee\	pre-
!	!	!LO:TX:t=P:problem:kreska pseudotaktowa	!
.	.	2ff\	-p(ter)
=49-	=49-	=49-	=49-
.	.	1gg\	no-
.	.	2ee\	-ſtra(m)
!	!	!LO:TX:t=P:problem:kreska pseudotaktowa	!
.	.	2dd\	ſa-
=50-	=50-	=50-	=50-
.	.	0cc\	-lu-
0r	.	.	.
=51-	=51-	=51-	=51-
!LO:TX:t=P:problem:kreska pseudotaktowa	!	!LO:TX:t=P:problem:kreska pseudotaktowa	!
.	.	1b\	-tem
1c\	De-	1ee\	de-
=52-	=52-	=52-	=52-
!	!	!LO:TX:t=P:problem:kreska pseudotaktowa	!
2c\	-ſcen-	1cc\	-ſce(n)-
1A\	.	.	.
.	.	1.a/	-dit
4F/	-dit	.	.
!LO:TX:t=P:problem:kreska pseudotaktowa	!	!	!
4G/	.	.	.
=53-	=53-	=53-	=53-
4A\	de	.	.
4B\	.	.	.
!	!	!LO:TX:t=P:problem:kreska pseudotaktowa	!
4c\	.	2f/	de
!LO:TX:t=P:problem:kreska pseudotaktowa	!	!LO:LB:g=original	!
4d\	.	.	.
!LO:LB:g=original	!	!	!
0c\	Coe-	0a/	cae-
=54-	=54-	=54-	=54-
.	.	.	.
!LO:TX:t=P:problem:kreska pseudotaktowa	!	!LO:TX:t=P:problem:kreska pseudotaktowa	!
1G/	-liſ	1g/	-lis
=55-	=55-	=55-	=55-
1r	.	1r	.
!	!	!LO:TX:t=P:problem:kreska pseudotaktowa	!
1c\	Ex	1cc\	Et
=56-	=56-	=56-	=56-
!LO:TX:t=P:problem:kreska pseudotaktowa	!	!	!
1B\	In-	1dd\	in-
!	!	!LO:TX:t=P:problem:kreska pseudotaktowa	!
2c\	-car-	1ee\	-car
!LO:TX:t=P:problem:kreska pseudotaktowa	!	!	!
2G/	-na-	.	.
=57-	=57-	=57-	=57-
2A/	.	1ff\	na-
1c\	.	.	.
!	!	!LO:TX:t=P:problem:kreska pseudotaktowa	!
.	.	1ee\	-t(us)
!LO:TX:t=P:problem:kreska pseudotaktowa	!	!	!
2c\	-tuſ	.	.
=58-	=58-	=58-	=58-
!LO:TX:t=P:problem:kreska pseudotaktowa	!	!	!
1B\	e(st)	2dd\	e(st)
!	!	!LO:TX:t=P:problem:kreska pseudotaktowa	!
.	.	2dd\	de
00r	.	1.dd\	Spi-
=59-	=59-	=59-	=59-
.	.	.	.
!	!	!LO:TX:t=P:problem:kreska pseudotaktowa	!
.	.	2dd\	-ri-
.	.	2ee\	-tu
.	.	1ee\	.
=60-	=60-	=60-	=60-
.	.	.	.
.	.	4dd\	.
!	!	!LO:TX:t=P:problem:kreska pseudotaktowa	!
.	.	4cc\	.
!LO:TX:t=P:problem:kreska pseudotaktowa	!	!	!
0r	.	4dd\	.
.	.	4cc\	.
.	.	4cc\	.
.	.	8b/L	.
!	!	!LO:SIC:v:t=custos b	!
.	.	8a/J	.
!	!	!LO:PB:g=original	!
=61-	=61-	=61-	=61-
!	!	!	!
.	.	1b\	.
!	!	!LO:TX:t=P:problem:kreska pseudotaktowa	!
2r	.	1a/	-cto
1f\	Ex	.	.
=62-	=62-	=62-	=62-
.	.	2r	.
4e\	.	1ee\	Ex
!LO:TX:t=P:problem:kreska pseudotaktowa	!	!	!
4d\	.	.	.
2c#X\	Ma-	.	.
!LO:TX:t=P:problem:kreska pseudotaktowa	!	!LO:TX:t=P:problem:kreska pseudotaktowa	!
2A/	-ri-	2dd\	Ma-
=63-	=63-	=63-	=63-
1B\	-a	1dd\	-ri-
!LO:TX:t=P:problem:kreska pseudotaktowa	!	!LO:TX:t=P:problem:kreska pseudotaktowa	!
1B\	Vir-	1dd\	-a
=64-	=64-	=64-	=64-
1G/	-gi-	1ee\	Vir-
!LO:TX:t=P:problem:kreska pseudotaktowa	!	!	!
1cny\	-ne	1ee\	-gi-
=65-	=65-	=65-	=65-
!	!	!LO:TX:t=P:problem:kreska pseudotaktowa	!
2d\	et	1dd\	-ne
1G/	ho-	.	.
.	.	1ee\	et
!LO:TX:t=P:problem:kreska pseudotaktowa	!	!	!
2c\	.	.	.
=66-	=66-	=66-	=66-
!LO:TX:t=P:problem:kreska pseudotaktowa	!	!	!
1A\	-mo	1cc\	ho-
!LO:LB:g=original	!	!LO:TX:t=P:problem:kreska pseudotaktowa	!
2B\	fa-	1b\	-mo
!LO:TX:t=P:problem:kreska pseudotaktowa	!	!	!
2G/	.	.	.
=67-	=67-	=67-	=67-
4B\	.	1dd\	fa-
4c\	.	.	.
1d\	.	.	.
.	.	1a/	-ct(us)
2d\	-ct(us)	.	.
=68-	=68-	=68-	=68-
!	!	!	!
0d\	e(st)	0b\	eſt.
=69||-	=69||-	=69||-	=69||-
*M2/1	*	*M2/1	*
*met(C|)	*	*met(C|)	*
!	!	!LO:TX:a:t=Crucifix(us)\nTacet	!
*	*	*	*
0c\	Cru-	0ryy	.
=70-	=70-	=70-	=70-
!LO:TX:t=P:problem:kreska pseudotaktowa	!	!	!
1B\	-ci-	0ryy	.
1A\	-fi-	.	.
=71-	=71-	=71-	=71-
2G/	-x(us)	0ryy	.
1c\	e-	.	.
!LO:TX:t=P:problem:kreska pseudotaktowa	!	!	!
2c\	-ti-	.	.
=72-	=72-	=72-	=72-
2c\	-a(m)	0ryy	.
2A/	p(ro)	.	.
1B-X\	No-	.	.
=73-	=73-	=73-	=73-
!LO:TX:t=P:problem:kreska pseudotaktowa	!	!	!
1c\	-biſ	0ryy	.
2r	.	.	.
!LO:TX:t=P:problem:kreska pseudotaktowa	!	!	!
2G/	ſub	.	.
=74-	=74-	=74-	=74-
2.G/	Pon-	0ryy	.
!LO:TX:t=P:problem:kreska pseudotaktowa	!	!	!
4G/	-ti-	.	.
!LO:LB:g=original	!	!	!
2A\	-o	.	.
!LO:TX:t=P:problem:kreska pseudotaktowa	!	!	!
2Bny\	Pi-	.	.
=75-	=75-	=75-	=75-
2.A\	-la-	0ryy	.
4B\	.	.	.
2c\	to	.	.
!LO:TX:t=P:problem:kreska pseudotaktowa	!	!	!
2c\	paſ-	.	.
=76-	=76-	=76-	=76-
2c\	-suſ	0ryy	.
!LO:TX:t=P:problem:kreska pseudotaktowa	!	!	!
2Bn\	.	.	.
2c\	Pi-	.	.
4e\	-la-	.	.
!LO:TX:t=P:problem:kreska pseudotaktowa	!	!	!
4d\	.	.	.
=77-	=77-	=77-	=77-
2c\	.	0ryy	.
2G/	.	.	.
2.c\	.	.	.
!LO:TX:t=P:problem:kreska pseudotaktowa	!	!	!
4B\	.	.	.
=78-	=78-	=78-	=78-
2A/	-to	0ryy	.
2G/	paſ-	.	.
!LO:TX:t=P:problem:kreska pseudotaktowa	!	!	!
1G/	-ſuſ	.	.
=79-	=79-	=79-	=79-
0c\	et	0ryy	.
=80-	=80-	=80-	=80-
2G/	se-	0ryy	.
4E/	.	.	.
!LO:TX:t=P:problem:kreska pseudotaktowa	!	!	!
4F/	.	.	.
4G/	.	.	.
8A\L	.	.	.
8B\J	.	.	.
!LO:TX:t=P:problem:kreska pseudotaktowa	!	!	!
2c\	.	.	.
=81-	=81-	=81-	=81-
2B\	.	0ryy	.
!LO:TX:t=P:problem:kreska pseudotaktowa	!	!	!
2B\	.	.	.
!LO:LB:g=original	!	!	!
2G/	-pul-	.	.
2G/	-t(us)	.	.
=82-	=82-	=82-	=82-
*M3/1	*	*M3/1	*
!LO:TX:t=P:problem:kreska pseudotaktowa	!	!	!
0.G/	e(st)	1%3ryy	.
=83-	=83-	=83-	=83-
1B\	Et	1%3ryy	.
1c\	re-	.	.
!LO:TX:t=P:problem:kreska pseudotaktowa	!	!	!
1d\	-ſur-	.	.
=84-	=84-	=84-	=84-
0e\	-re-	1%3ryy	.
!LO:TX:t=P:problem:kreska pseudotaktowa	!	!	!
1d\	-xit	.	.
=85-	=85-	=85-	=85-
0c\	ter-	1%3ryy	.
!LO:TX:b:t=g	!	!	!
!LO:TX:a:t=g	!	!	!
1G/	.	.	.
=86-	=86-	=86-	=86-
2A\	-ti-	1%3ryy	.
2B\	.	.	.
2c\	-a	.	.
2d\	.	.	.
!LO:TX:t=P:problem:kreska pseudotaktowa	!	!	!
1e\	di-	.	.
=87-	=87-	=87-	=87-
0d\	.	1%3ryy	.
!LO:TX:a:t=a	!	!	!
!LO:TX:t=P:problem:kreska pseudotaktowa	!	!	!
1A\	.	.	.
=88-	=88-	=88-	=88-
!LO:TX:t=P:problem:kreska pseudotaktowa	!	!	!
0.A\	-e	1%3ryy	.
=89-	=89-	=89-	=89-
1r	.	1%3ryy	.
1r	.	.	.
!LO:TX:t=P:problem:kreska pseudotaktowa	!	!	!
1c\	Se-	.	.
=90-	=90-	=90-	=90-
1c\	-cun-	1%3ryy	.
1c\	-du(m)	.	.
!LO:TX:t=P:problem:kreska pseudotaktowa	!	!	!
1B\	ſcri-	.	.
!LO:LB:g=original	!	!	!
=91-	=91-	=91-	=91-
1c\	-ptu-	1%3ryy	.
!LO:TX:t=P:problem:kreska pseudotaktowa	!	!	!
0d\	-raſ	.	.
=92-	=92-	=92-	=92-
1r	.	1%3ryy	.
1d\	et	.	.
2B\	a-	.	.
2G/	.	.	.
=93-	=93-	=93-	=93-
0c\	-ſcen-	1%3ryy	.
!LO:TX:t=P:problem:kreska pseudotaktowa	!	!	!
1G/	-dit	.	.
=94-	=94-	=94-	=94-
1G/	in	1%3ryy	.
!LO:TX:t=P:problem:kreska pseudotaktowa	!	!	!
0A\	Cae-	.	.
=95-	=95-	=95-	=95-
0B\	.	1%3ryy	.
!LO:TX:t=P:problem:kreska pseudotaktowa	!	!	!
1G/	-lu(m)	.	.
=96-	=96-	=96-	=96-
2A\	In	1%3ryy	.
2B\	.	.	.
2c\	Coe-	.	.
2d\	.	.	.
!LO:TX:t=P:problem:kreska pseudotaktowa	!	!	!
1c\	.	.	.
=97-	=97-	=97-	=97-
1c\	.	1%3ryy	.
!LO:TX:t=P:problem:kreska pseudotaktowa	!	!	!
0B\	-lum	.	.
=98-	=98-	=98-	=98-
1r	.	1%3ryy	.
1c\	Se-	.	.
!LO:TX:t=P:problem:kreska pseudotaktowa	!	!	!
1A\	-det	.	.
=99-	=99-	=99-	=99-
1B\	ad	1%3ryy	.
1.c\	dex-	.	.
!LO:TX:t=P:problem:kreska pseudotaktowa	!	!	!
2d\	-te	.	.
!LO:LB:g=original	!	!	!
=100-	=100-	=100-	=100-
1.c\	ram	1%3ryy	.
2d\	.	.	.
!LO:TX:t=P:problem:kreska pseudotaktowa	!	!	!
1e\	.	.	.
=101-	=101-	=101-	=101-
0d\	Pa-	1%3ryy	.
!LO:TX:t=P:problem:kreska pseudotaktowa	!	!	!
1A\	-triſ	.	.
=102-	=102-	=102-	=102-
1d\	Se-	1%3ryy	.
1d\	-det	.	.
!LO:TX:t=P:problem:kreska pseudotaktowa	!	!	!
1c\	.	.	.
=103-	=103-	=103-	=103-
1B\	ad	1%3ryy	.
1.c\	dex-	.	.
!LO:TX:t=P:problem:kreska pseudotaktowa	!	!	!
2c\	-te-	.	.
=104-	=104-	=104-	=104-
*lig	*	*	*
1B\	-ra(m)	1%3ryy	.
1A\	.	.	.
*Xlig	*	*	*
1B\	Pa-	.	.
=105-	=105-	=105-	=105-
!	!	!	!
0.c\	-triſ	1%3ryy	.
!LO:LB:g=original	!	!LO:LB:g=original	!
=106||-	=106||-	=106||-	=106||-
*M2/1	*	*M2/1	*
*met(C|)	*	*met(C|)	*
!	!	!LO:TX:t=P:problem:kreska pseudotaktowa	!
00r	.	1ee\	ET
.	.	1.ff\	i-
=107-	=107-	=107-	=107-
.	.	.	.
!	!	!LO:TX:t=P:problem:kreska pseudotaktowa	!
.	.	2ee\	-te-
.	.	2ee\	-rum
.	.	2ee\	Ven-
=108-	=108-	=108-	=108-
!LO:TX:t=P:problem:kreska pseudotaktowa	!	!	!
00r	.	1dd\	-tu-
!	!	!LO:TX:t=P:problem:kreska pseudotaktowa	!
.	.	1cc\	-r(us)
=109-	=109-	=109-	=109-
!	!	!	!
.	.	2dd\	eſt
!	!	!LO:TX:t=P:problem:kreska pseudotaktowa	!
.	.	2g/	cu(m)
.	.	2.cc\	glo-
.	.	4cc\	-ri-
=110-	=110-	=110-	=110-
!	!	!LO:TX:t=P:problem:kreska pseudotaktowa	!
2r	.	1b\	-a
!LO:TX:t=P:problem:kreska pseudotaktowa	!	!	!
2G/	Ju-	.	.
2G/	-di-	00r	.
1G/	-ca-	.	.
=111-	=111-	=111-	=111-
.	.	.	.
!LO:TX:t=P:problem:kreska pseudotaktowa	!	!	!
2G/	-re	.	.
2c\	Vi-	.	.
2G/	-vos	.	.
=112-	=112-	=112-	=112-
2B\	et	.	.
!LO:TX:t=P:problem:kreska pseudotaktowa	!	!	!
2B\	Mor-	.	.
2A\	.	2r	.
!	!	!LO:TX:t=P:problem:kreska pseudotaktowa	!
2B\	.	2g/	et
=113-	=113-	=113-	=113-
1G/	-tu-	2b/	mor-
!	!	!LO:TX:t=P:problem:kreska pseudotaktowa	!
!	!	!LO:SIC:v:t=custos dd	!
.	.	2cc\	-tu-
!LO:TX:t=P:problem:kreska pseudotaktowa	!	!LO:LB:g=original	!
1A\	-os	2.dd\	-[os]
!	!	!LO:TX:t=P:problem:kreska pseudotaktowa	!
.	.	4cc\	.
=114-	=114-	=114-	=114-
2r	.	2b/	.
1d\	Cu-	1dd\	cu-
!LO:TX:t=P:problem:kreska pseudotaktowa	!	!LO:TX:t=P:problem:kreska pseudotaktowa	!
2B\	-j(us)	2dd\	-ius
=115-	=115-	=115-	=115-
1c\	re-	1ee\	re-
!LO:TX:t=P:problem:kreska pseudotaktowa	!	!	!
1B\	-gni	2dd\	-gni
!	!	!LO:TX:t=P:problem:kreska pseudotaktowa	!
.	.	2gg\	no(n)
=116-	=116-	=116-	=116-
!LO:TX:t=P:problem:kreska pseudotaktowa	!	!	!
!LO:TX:a:t=2,	!	!	!
0r	.	2gg\	e-
.	.	2ff\	-rit
!	!	!LO:TX:t=P:problem:kreska pseudotaktowa	!
.	.	1ee\	fi-
=117-	=117-	=117-	=117-
2d\	N(on)	2dd,<\	-nis
!	!	!LO:TX:t=P:problem:kreska pseudotaktowa	!
2B\	e-	2dd\	no(n)
2G/	-rit	2ee\	e-
4e\	fi-	2.dd\	-rit
!LO:TX:t=P:problem:kreska pseudotaktowa	!	!	!
4d\	.	.	.
=118-	=118-	=118-	=118-
2.c\	.	.	.
.	.	4cc\	.
.	.	1cc\	fi-
8B\L	.	.	.
!LO:TX:t=P:problem:kreska pseudotaktowa	!	!	!
8A\J	.	.	.
!LO:LB:g=original	!	!	!
2G/	.	.	.
!LO:TX:t=P:problem:kreska pseudotaktowa	!	!LO:TX:t=P:problem:kreska pseudotaktowa	!
2d\	.	2b/	.
=119-	=119-	=119-	=119-
!	!	!LO:TX:t=P:problem:kreska pseudotaktowa	!
2c,<\	-niſ	0cc\	-nis
1G/	Et	.	.
!LO:TX:t=P:problem:kreska pseudotaktowa	!	!	!
2c\	in	.	.
=120-	=120-	=120-	=120-
2B\	ſpi-	00r	.
!LO:TX:t=P:problem:kreska pseudotaktowa	!	!	!
2G/	-r(i-	.	.
2A/	-t)u(m)	.	.
!LO:TX:t=P:problem:kreska pseudotaktowa	!	!	!
2A/	S(an)-	.	.
=121-	=121-	=121-	=121-
!LO:TX:t=P:problem:kreska pseudotaktowa	!	!	!
1c\	-ctu(m)	.	.
2c\	D(o-	.	.
!LO:TX:t=P:problem:kreska pseudotaktowa	!	!	!
2c\	-mi)-	.	.
=122-	=122-	=122-	=122-
!	!	!LO:SIC:v:t=custos dd	!
2B,<\	-nu(m)	2r	.
!	!	!LO:LB:g=original	!
1G/	et	1dd\	et
!LO:TX:t=P:problem:kreska pseudotaktowa	!	!LO:TX:t=P:problem:kreska pseudotaktowa	!
2G/	vi-	2dd\	Vi-
=123-	=123-	=123-	=123-
2c\	-vi-	2cc\	-ui-
4B\	-fi-	2dd\	-fi-
!LO:TX:t=P:problem:kreska pseudotaktowa	!	!	!
4G/	.	.	.
!	!	!LO:TX:t=P:problem:kreska pseudotaktowa	!
1c\	-can-	1ee\	-ca(n)-
=124-	=124-	=124-	=124-
!	!	!LO:TX:t=P:problem:kreska pseudotaktowa	!
2B\	te(m)	0dd\	-tem
4G/	.	.	.
!LO:TX:t=P:problem:kreska pseudotaktowa	!	!	!
4A/	.	.	.
4B\	.	.	.
4c,<\	.	.	.
1d\	qvi	.	.
=125-	=125-	=125-	=125-
.	.	00r	.
!LO:TX:t=P:problem:kreska pseudotaktowa	!	!	!
2A/	ex	.	.
2B\	Pa-	.	.
!LO:TX:t=P:problem:kreska pseudotaktowa	!	!	!
2G/	-tre	.	.
!LO:PB:g=original	!	!	!
=126-	=126-	=126-	=126-
2c\	Fi-	.	.
!LO:TX:t=P:problem:kreska pseudotaktowa	!	!	!
2B\	-li-	.	.
1A\	-o-	.	.
=127-	=127-	=127-	=127-
!	!	!LO:TX:t=P:problem:kreska pseudotaktowa	!
2B\	-q(ue)	1r	.
!LO:SIC:v:s=2F#	!	!	!
!LO:TX:t=P:problem:kreska pseudotaktowa	!	!	!
2F/	pro-	.	.
1G/	-ce-	2r	.
.	.	1dd\	qui
=128-	=128-	=128-	=128-
!LO:TX:t=P:problem:kreska pseudotaktowa	!	!	!
1A\	-dit	.	.
!	!	!LO:TX:t=P:problem:kreska pseudotaktowa	!
.	.	2cc\	cu(m)
0r	.	1.dd\	Pa-
=129-	=129-	=129-	=129-
.	.	.	.
!	!	!LO:TX:t=P:problem:kreska pseudotaktowa	!
.	.	2b/	-(t)re
1.G/	pro-	2cc\	et
.	.	1dd\	Fi-
=130-	=130-	=130-	=130-
.	.	.	.
!LO:TX:t=P:problem:♯above	!	!	!
!LO:TX:t=P:problem:kreska pseudotaktowa	!	!LO:TX:t=P:problem:kreska pseudotaktowa	!
2F#X/	-ce-	2cc\	-i-
2G/	.	1b\	-o
1c\	.	.	.
=131-	=131-	=131-	=131-
.	.	1.dd\	Si-
!LO:TX:t=P:problem:kreska pseudotaktowa	!	!	!
2d\	.	.	.
2d,<\	-dit,	.	.
!	!	!LO:TX:t=P:problem:kreska pseudotaktowa	!
1A\	si-	2dd\	-mul
=132-	=132-	=132-	=132-
!	!	!LO:SIC:v:t=custos ff	!
.	.	1ee\	a-
4F#X/	-mul	.	.
!LO:TX:t=P:problem:kreska pseudotaktowa	!	!	!
4G/	.	.	.
!	!	!LO:LB:g=original	!
!	!	!LO:TX:t=P:problem:kreska pseudotaktowa	!
4A\	a-	1ff#X\	-do-
4B\	.	.	.
2c\	-do-	.	.
=133-	=133-	=133-	=133-
!LO:TX:t=P:problem:kreska pseudotaktowa	!	!	!
1d\	-ra-	2.gg\	-ra-
.	.	8ffny\L	.
!	!	!LO:TX:t=P:problem:kreska pseudotaktowa	!
.	.	8ee\J	.
0d\	-tur	1dd\	.
=134-	=134-	=134-	=134-
.	.	1ee\,<	-tur
!LO:TX:t=P:problem:kreska pseudotaktowa	!	!LO:TX:t=P:problem:kreska pseudotaktowa	!
1d\	et	1dd\	et
=135-	=135-	=135-	=135-
2B\	con-	2dd\	con-
!LO:TX:t=P:problem:kreska pseudotaktowa	!	!LO:TX:t=P:problem:kreska pseudotaktowa	!
2G/	-glo-	2dd\	-glo-
!LO:LB:g=original	!	!	!
4A\	-ri-	2ee\	-ri-
4B\	.	.	.
!	!	!LO:TX:t=P:problem:kreska pseudotaktowa	!
4c\	-fi-	2ff#X\	-fi-
4d\	.	.	.
=136-	=136-	=136-	=136-
2c\	-ca-	2.gg\	-ca-
!LO:TX:t=P:problem:kreska pseudotaktowa	!	!	!
2A/	.	.	.
.	.	8ffny\L	.
!	!	!LO:TX:t=P:problem:kreska pseudotaktowa	!
.	.	8ee\J	.
!LO:N:vis=0	!	!	!
1B\	.	1dd\	.
=137-	=137-	=137-	=137-
!LO:TX:t=P:problem:kreska pseudotaktowa	!	!LO:TX:t=P:problem:kreska pseudotaktowa	!
1c\	-tur	1ee\	tur
2r	.	2r	.
!	!	!LO:SIC:v:t=custos cc	!
1G/	qvi	1cc\	qui
!	!	!LO:LB:g=original	!
=138-	=138-	=138-	=138-
!	!	!	!
.	.	.	.
!LO:TX:t=P:problem:kreska pseudotaktowa	!	!LO:TX:t=P:problem:kreska pseudotaktowa	!
2A/	lo-	2cc\	lo-
2c\	-cu-	2cc\	-cu-
!LO:TX:t=P:problem:kreska pseudotaktowa	!	!	!
2B\	-t(us)	2dd\	-tus
=139-	=139-	=139-	=139-
!	!	!LO:TX:t=P:problem:kreska pseudotaktowa	!
2G/	e(st)	0ee\	eſt
4E/	per	.	.
!LO:TX:t=P:problem:kreska pseudotaktowa	!	!	!
4Fny/	.	.	.
4G/	.	.	.
4A/	.	.	.
4B\	.	.	.
4c\	.	.	.
=140-	=140-	=140-	=140-
!LO:TX:t=P:problem:kreska pseudotaktowa	!	!	!
1c\	Pro-	00r	.
2B/	-phe-	.	.
4G/	.	.	.
!LO:TX:t=P:problem:kreska pseudotaktowa	!	!	!
4A/	.	.	.
=141-	=141-	=141-	=141-
4B\	.	.	.
4c\	.	.	.
4d\	.	.	.
4e\	.	.	.
2d\	.	.	.
!LO:TX:t=P:problem:kreska pseudotaktowa	!	!	!
2A/	.	.	.
!LO:LB:g=original	!	!	!
=142-	=142-	=142-	=142-
!	!	!LO:TX:t=P:problem:kreska pseudotaktowa	!
0A\	-taſ	1r	.
.	.	1dd\	Et
=143-	=143-	=143-	=143-
!LO:TX:t=P:problem:kreska pseudotaktowa	!	!	!
00r	.	2ee\	V-
!	!	!LO:TX:t=P:problem:kreska pseudotaktowa	!
.	.	2ee\	-nam
.	.	1dd\	ſa(n)-
=144-	=144-	=144-	=144-
.	.	2dd,<\	-cta(m)
!	!	!LO:TX:t=P:problem:kreska pseudotaktowa	!
.	.	2ee\	Ca-
.	.	2.cc\	-tho-
.	.	4cc\	-li-
=145-	=145-	=145-	=145-
!	!	!LO:TX:t=P:problem:kreska pseudotaktowa	!
2r	.	1b\	-ca(m)
!LO:TX:t=P:problem:kreska pseudotaktowa	!	!	!
2B\	et	.	.
2d\	A-	00r	.
!LO:TX:t=P:problem:kreska pseudotaktowa	!	!	!
2A/	-po-	.	.
=146-	=146-	=146-	=146-
2.B\	-ſto-	.	.
4B\	-li-	.	.
2c\	-ca(m)	.	.
!LO:TX:t=P:problem:kreska pseudotaktowa	!	!	!
2c\	Ec-	.	.
=147-	=147-	=147-	=147-
2c\	-cle-	.	.
!LO:TX:t=P:problem:kreska pseudotaktowa	!	!	!
2B\	.	.	.
2c\	-si-	2r	.
!LO:TX:t=P:problem:kreska pseudotaktowa	!	!LO:TX:t=P:problem:kreska pseudotaktowa	!
2G/	-a(m),	2ee\	Con-
=148-	=148-	=148-	=148-
2E/	Con-	2.ee\	-fi-
2F/	-fi-	.	.
!	!	!LO:SIC:v:t=custos dd	!
.	.	4ee\	-te-
!	!	!LO:LB:g=original	!
2G/	-te-	2dd,<\	-or
!LO:TX:t=P:problem:kreska pseudotaktowa	!	!LO:TX:t=P:problem:kreska pseudotaktowa	!
2E/	-or	2ee\	V-
=149-	=149-	=149-	=149-
2A/	u-	2cc\	-num
2G/	-nu(m)	2dd\	ba-
!LO:TX:t=P:problem:kreska pseudotaktowa	!	!LO:TX:t=P:problem:kreska pseudotaktowa	!
1C/	ba-	1ee\	-pti-
=150-	=150-	=150-	=150-
!	!	!LO:TX:t=P:problem:kreska pseudotaktowa	!
2G/	-pti-	0dd\	-ſma
!LO:TX:t=P:problem:kreska pseudotaktowa	!	!	!
2B/	-ſma	.	.
2G/	in	.	.
!LO:TX:t=P:problem:kreska pseudotaktowa	!	!	!
2B\	re-	.	.
=151-	=151-	=151-	=151-
2c\	-miſ-	00r	.
!LO:TX:t=P:problem:kreska pseudotaktowa	!	!	!
2c\	-si-	.	.
!LO:LB:g=original	!	!	!
2B\	-o-	.	.
!LO:TX:t=P:problem:kreska pseudotaktowa	!	!	!
2B\	-ne(m)	.	.
=152-	=152-	=152-	=152-
2A/	pec-	.	.
4F/	-ca-	.	.
!LO:TX:t=P:problem:kreska pseudotaktowa	!	!	!
4G/	.	.	.
4A\	.	.	.
4B\	.	.	.
4c\	.	.	.
4A\	.	.	.
=153-	=153-	=153-	=153-
!	!	!LO:TX:t=P:problem:kreska pseudotaktowa	!
1B\	-to-	1r	.
!LO:TX:t=P:problem:kreska pseudotaktowa	!	!	!
1G/	-ru(m)	0dd\	Et
=154-	=154-	=154-	=154-
0r	.	.	.
!	!	!LO:TX:t=P:problem:kreska pseudotaktowa	!
.	.	1dd\	ex-
=155-	=155-	=155-	=155-
2r	.	1ee\	-pe-
1e\	Re-	.	.
!	!	!LO:TX:t=P:problem:kreska pseudotaktowa	!
.	.	1gg\	-cto
4d\	ſur-	.	.
!LO:TX:t=P:problem:kreska pseudotaktowa	!	!	!
4c\	.	.	.
=156-	=156-	=156-	=156-
2d\	-re-	0r	.
!LO:TX:t=P:problem:kreska pseudotaktowa	!	!	!
2c\	-cti-	.	.
2.B\	-o-	.	.
!LO:TX:t=P:problem:kreska pseudotaktowa	!	!	!
4B\	-ne(m)	.	.
=157-	=157-	=157-	=157-
2A\	Mor-	2.cc\	mor-
!LO:TX:t=P:problem:kreska pseudotaktowa	!	!	!
2e\	-tu-	.	.
!	!	!LO:TX:t=P:problem:kreska pseudotaktowa	!
.	.	4b/	.
2d\	-o-	2a/	.
!	!	!LO:TX:t=P:problem:kreska pseudotaktowa	!
2B\	.	2g/	-tu-
=158-	=158-	=158-	=158-
1A\	.	1a/	-o-
!LO:TX:t=P:problem:kreska pseudotaktowa	!	!	!
1G/	-ru(m)	2b,</	-ru(m)
!	!	!LO:TX:t=P:problem:kreska pseudotaktowa	!
.	.	2dd\	et
=159-	=159-	=159-	=159-
!	!	!LO:TX:t=P:problem:kreska pseudotaktowa	!
!	!	!LO:SIC:v:t=custos ff	!
00r	.	1ee\	vi-
!	!	!LO:LB:g=original	!
.	.	2ff#X\	-tam
!	!	!LO:TX:t=P:problem:kreska pseudotaktowa	!
.	.	2ff#\	Ven-
=160-	=160-	=160-	=160-
.	.	2gg\	-tu-
!	!	!LO:TX:t=P:problem:kreska pseudotaktowa	!
.	.	2gg\	-ri
.	.	2.ee\	ſae-
!	!	!LO:TX:t=P:problem:kreska pseudotaktowa	!
.	.	4ee\	-cu-
=161-	=161-	=161-	=161-
1B\	Et	2dd\	-li
!	!	!LO:TX:t=P:problem:kreska pseudotaktowa	!
.	.	2b/	et
!LO:TX:t=P:problem:kreska pseudotaktowa	!	!	!
1e\	Vi-	1cc\	Vi-
=162-	=162-	=162-	=162-
2d\	-ta(m)	2a,</	-ta(m)
!LO:TX:t=P:problem:kreska pseudotaktowa	!	!LO:TX:t=P:problem:kreska pseudotaktowa	!
2d\	Ven-	2a/	Ven-
!LO:LB:g=original	!	!	!
2B\	-tu-	2g/	-tu-
!LO:TX:t=P:problem:kreska pseudotaktowa	!	!LO:TX:t=P:problem:kreska pseudotaktowa	!
2G/	-ri	2b/	-ri
=163-	=163-	=163-	=163-
2.c\	Sae-	2.cc\	Sae-
4c\	-cu-	4cc\	-cu-
!LO:TX:t=P:problem:kreska pseudotaktowa	!	!LO:TX:t=P:problem:kreska pseudotaktowa	!
1d\	-li	1b\	-li
=164-	=164-	=164-	=164-
1.c\	A-	1.ee\	A-
!	!	!LO:TX:t=P:problem:kreska pseudotaktowa	!
!LO:TX:t=P:problem:kreska pseudotaktowa	!	!LO:SIC:v:t=custos cc	!
2B\	.	2dd\	.
!	!	!LO:LB:g=original	!
=165-	=165-	=165-	=165-
2A/	.	2cc\	.
!	!	!LO:TX:t=P:problem:kreska pseudotaktowa	!
2G/	.	2b/	.
2c\	.	1a/	.
!LO:TX:t=P:problem:kreska pseudotaktowa	!	!	!
2d\	.	.	.
=166-	=166-	=166-	=166-
2G,</	-men	2g/	-me(n)
!	!	!LO:TX:t=P:problem:kreska pseudotaktowa	!
1c\	A-	2cc\	et
.	.	1cc\	Vi-
2c\	-men	.	.
=167-	=167-	=167-	=167-
1B\	.	2gg\	-ta(m)
!	!	!LO:TX:t=P:problem:kreska pseudotaktowa	!
.	.	2gg\	Ven-
!LO:TX:t=P:problem:kreska pseudotaktowa	!	!	!
1A\	.	2ee\	-tu-
!	!	!LO:TX:t=P:problem:kreska pseudotaktowa	!
.	.	2ee\	-ri
=168-	=168-	=168-	=168-
!LO:TX:t=P:problem:kreska pseudotaktowa	!	!	!
1A\	A-	2.ffny\	Sae-
.	.	4ff\	-cu-
!	!	!LO:TX:t=P:problem:kreska pseudotaktowa	!
2G/	.	0gg\	-li
1G/	.	.	.
=169-	=169-	=169-	=169-
!	!	!	!
.	.	.	.
!LO:TX:t=P:problem:kreska pseudotaktowa	!	!	!
2c\	.	.	.
1c\	.	1r	.
=170-	=170-	=170-	=170-
0A\	.	0dd\	A-
=171-	=171-	=171-	=171-
0B\;;	-men	0b\;;	-men
==	==	==	==
*-	*-	*-	*-
!!!system-decoration: [s1,s2]
!!!RDF**kern: < = below
!!!EED: Andrzej Borzym
!!!EST: 2021-07-10
!!!AIN: 1 tenor 1 vox
!!!ENC: Krzysztof Stępień
!!!END: 2021-06-29
